img/advantages-4.svg

<svg width="66" height="66" viewBox="0 0 66 66" fill="none" xmlns="http://www.w3.org/2000/svg">
<g clip-path="url(#clip0_96182_337)">
<path d="M38.4527 18.4851H19.207C18.1758 18.4851 17.3379 17.6472 17.3379 16.616C17.3379 15.5847 18.1758 14.7469 19.207 14.7469H38.4527C39.484 14.7469 40.3219 15.5847 40.3219 16.616C40.3219 17.6472 39.484 18.4851 38.4527 18.4851Z" fill="#2D527C"/>
<path d="M23.3191 49.4871H17.3766C7.79883 49.4871 0 41.6883 0 32.1105C0 25.7683 3.45469 19.9289 9.02344 16.8738C9.92578 16.3711 11.073 16.7062 11.5758 17.6215C12.0785 18.5238 11.7434 19.6711 10.8281 20.1738C6.4582 22.5715 3.75117 27.1476 3.75117 32.1234C3.75117 39.6386 9.86133 45.7488 17.3766 45.7488H23.3191C24.3504 45.7488 25.1883 46.5867 25.1883 47.6179C25.2012 48.6363 24.3504 49.4871 23.3191 49.4871Z" fill="#2D527C"/>
<path d="M24.9176 63.2027C16.3711 63.2027 9.41016 56.2418 9.41016 47.6824C9.41016 46.6512 10.248 45.8133 11.2793 45.8133C12.3105 45.8133 13.1484 46.6512 13.1484 47.6824C13.1484 54.1664 18.4207 59.4515 24.9176 59.4515C31.4145 59.4515 36.6867 54.1793 36.6867 47.6824C36.6867 41.1984 31.4145 35.9133 24.9176 35.9133C21.6563 35.9133 18.627 37.2152 16.384 39.5742C15.675 40.3219 14.4891 40.3605 13.7285 39.6387C12.9809 38.9297 12.9422 37.7437 13.6641 36.9832C16.6289 33.8637 20.625 32.1492 24.9176 32.1492C33.477 32.1492 40.4379 39.1101 40.4379 47.6695C40.4379 56.2289 33.477 63.2027 24.9176 63.2027Z" fill="#F0BF5F"/>
<path d="M49.5645 45.7875H38.1176C37.0864 45.7875 36.2485 44.9496 36.2485 43.9183C36.2485 42.8871 37.0864 42.0492 38.1176 42.0492H49.5645C50.5957 42.0492 51.4336 42.8871 51.4336 43.9183C51.4336 44.9496 50.5957 45.7875 49.5645 45.7875Z" fill="#F0BF5F"/>
<path d="M61.8105 53.3285H38.5559C37.5246 53.3285 36.6867 52.4906 36.6867 51.4593C36.6867 50.4281 37.5246 49.5902 38.5559 49.5902H61.8105C62.0555 49.5902 62.2488 49.3968 62.2488 49.1519V38.5043C62.2488 38.1433 61.9523 37.8597 61.6043 37.8597H59.9801C59.6191 37.8597 59.3355 38.1562 59.3355 38.5043V43.5058C59.3355 44.5371 58.4977 45.375 57.4664 45.375C56.4352 45.375 55.5973 44.5371 55.5973 43.5058V38.5043C55.5973 36.0808 57.5695 34.1086 59.993 34.1086H61.6172C64.0406 34.1086 66.0129 36.0808 66.0129 38.5043V49.1519C66 51.4464 64.118 53.3285 61.8105 53.3285Z" fill="#F0BF5F"/>
<path d="M24.9176 52.9418C27.865 52.9418 30.2543 50.5524 30.2543 47.6051C30.2543 44.6577 27.865 42.2683 24.9176 42.2683C21.9702 42.2683 19.5808 44.6577 19.5808 47.6051C19.5808 50.5524 21.9702 52.9418 24.9176 52.9418Z" fill="#CEE8FA"/>
<path d="M24.9176 54.8109C20.9472 54.8109 17.7117 51.5754 17.7117 47.6051C17.7117 43.6347 20.9472 40.3992 24.9176 40.3992C28.8879 40.3992 32.1234 43.6347 32.1234 47.6051C32.1234 51.5754 28.9008 54.8109 24.9176 54.8109ZM24.9176 44.1504C23.0097 44.1504 21.4629 45.6972 21.4629 47.6051C21.4629 49.5129 23.0097 51.0598 24.9176 51.0598C26.8254 51.0598 28.3723 49.5129 28.3723 47.6051C28.3723 45.6972 26.8254 44.1504 24.9176 44.1504Z" fill="#F0BF5F"/>
<path d="M27.8953 24.5695V8.64959C27.8953 6.45818 29.6742 4.67928 31.8656 4.67928H60.1476C62.3391 4.67928 64.118 6.45818 64.118 8.64959V24.5695C64.118 26.7609 62.3391 28.5398 60.1476 28.5398H31.8785C29.6742 28.5398 27.8953 26.7609 27.8953 24.5695Z" fill="#CEE8FA"/>
<path d="M60.1476 30.4219H31.8785C28.6558 30.4219 26.0262 27.7922 26.0262 24.5696V8.64963C26.0262 5.42697 28.6558 2.79729 31.8785 2.79729H60.1605C63.3832 2.79729 66.0129 5.42697 66.0129 8.64963V24.5696C66 27.7922 63.3703 30.4219 60.1476 30.4219ZM31.8785 6.54846C30.7183 6.54846 29.7773 7.48947 29.7773 8.64963V24.5696C29.7773 25.7297 30.7183 26.6707 31.8785 26.6707H60.1605C61.3207 26.6707 62.2617 25.7297 62.2617 24.5696V8.64963C62.2617 7.48947 61.3207 6.54846 60.1605 6.54846H31.8785Z" fill="#2D527C"/>
<path d="M44.4468 17.7118H43.8152V16.5645C43.8152 15.9071 43.1578 15.4817 42.1394 15.4817C41.1211 15.4817 40.4636 15.9071 40.4636 16.5645V17.7118H39.3164L42.5519 11.2149C42.6035 11.086 42.6679 10.9313 42.6679 10.7766C42.6679 9.9645 41.5851 9.46176 40.9922 9.46176C40.3734 9.46176 39.8707 9.77114 39.5871 10.3254L35.2043 18.9493C35.0496 19.2329 35.0238 19.4778 35.0238 19.6067C35.0238 20.3286 35.5008 20.8184 36.1968 20.8184H40.4636V22.6489C40.4636 23.4094 41.3273 23.7446 42.1394 23.7446C42.9386 23.7446 43.8152 23.3965 43.8152 22.6489V20.8184H44.4468C45.014 20.8184 45.5425 20.0579 45.5425 19.2586C45.5425 18.511 45.1945 17.7118 44.4468 17.7118Z" fill="#2D527C"/>
<path d="M55.8937 17.7118H55.2621V16.5645C55.2621 15.9071 54.6046 15.4817 53.5863 15.4817C52.5679 15.4817 51.9105 15.9071 51.9105 16.5645V17.7118H50.7632L54.0117 11.2149C54.0632 11.086 54.1277 10.9313 54.1277 10.7766C54.1277 9.9645 53.0449 9.46176 52.4519 9.46176C51.8332 9.46176 51.3304 9.77114 51.0468 10.3254L46.664 18.9493C46.5093 19.2329 46.4836 19.4778 46.4836 19.6067C46.4836 20.3286 46.9605 20.8184 47.6566 20.8184H51.9234V22.6489C51.9234 23.4094 52.7871 23.7446 53.5992 23.7446C54.4113 23.7446 55.275 23.3965 55.275 22.6489V20.8184H55.9066C56.4738 20.8184 57.0023 20.0579 57.0023 19.2586C57.0023 18.511 56.6543 17.7118 55.8937 17.7118Z" fill="#2D527C"/>
</g>
<defs>
<clipPath id="clip0_96182_337">
<rect width="66" height="66" fill="white"/>
</clipPath>
</defs>
</svg>

<svg width="66" height="66" fill="none" xmlns="http://www.w3.org/2000/svg"><g clip-path="url(#a)"><path d="M38.453 18.485H19.207a1.87 1.87 0 0 1-1.87-1.869 1.87 1.87 0 0 1 1.87-1.87h19.246a1.87 1.87 0 0 1 1.869 1.87 1.87 1.87 0 0 1-1.87 1.87ZM23.32 49.487h-5.943C7.799 49.487 0 41.688 0 32.11a17.377 17.377 0 0 1 9.023-15.236 1.877 1.877 0 0 1 2.553.748c.502.902.167 2.05-.748 2.552a13.623 13.623 0 0 0-7.077 11.95c0 7.515 6.11 13.625 13.626 13.625h5.942a1.87 1.87 0 0 1 1.87 1.869c.012 1.018-.839 1.87-1.87 1.87Z" fill="#2D527C"/><path d="M24.918 63.203c-8.547 0-15.508-6.961-15.508-15.52a1.87 1.87 0 0 1 1.87-1.87 1.87 1.87 0 0 1 1.868 1.87c0 6.483 5.273 11.769 11.77 11.769s11.769-5.273 11.769-11.77c0-6.484-5.272-11.769-11.77-11.769-3.26 0-6.29 1.302-8.533 3.661a1.875 1.875 0 0 1-2.655.065 1.875 1.875 0 0 1-.065-2.656c2.965-3.12 6.961-4.834 11.254-4.834 8.559 0 15.52 6.961 15.52 15.52 0 8.56-6.961 15.534-15.52 15.534Z" fill="#F0BF5F"/><path d="M49.565 45.788H38.118a1.87 1.87 0 0 1-1.87-1.87 1.87 1.87 0 0 1 1.87-1.869h11.447a1.87 1.87 0 0 1 1.869 1.87 1.87 1.87 0 0 1-1.87 1.869Z" fill="#F0BF5F"/><path d="M61.81 53.328H38.556a1.87 1.87 0 0 1-1.87-1.869 1.87 1.87 0 0 1 1.87-1.869H61.81a.435.435 0 0 0 .438-.438V38.504a.646.646 0 0 0-.645-.644H59.98a.646.646 0 0 0-.644.644v5.002a1.87 1.87 0 0 1-1.87 1.869 1.87 1.87 0 0 1-1.869-1.87v-5a4.401 4.401 0 0 1 4.396-4.396h1.624a4.401 4.401 0 0 1 4.396 4.395v10.648a4.214 4.214 0 0 1-4.203 4.176Z" fill="#F0BF5F"/><path d="M24.918 52.942a5.337 5.337 0 1 0 0-10.674 5.337 5.337 0 0 0 0 10.674Z" fill="#CEE8FA"/><path d="M24.918 54.81c-3.97 0-7.206-3.235-7.206-7.205s3.235-7.206 7.206-7.206c3.97 0 7.205 3.236 7.205 7.206a7.21 7.21 0 0 1-7.205 7.206Zm0-10.66a3.455 3.455 0 1 0 0 6.91 3.455 3.455 0 0 0 0-6.91Z" fill="#F0BF5F"/><path d="M27.895 24.57V8.65a3.972 3.972 0 0 1 3.97-3.97h28.283a3.972 3.972 0 0 1 3.97 3.97v15.92a3.972 3.972 0 0 1-3.97 3.97h-28.27a3.975 3.975 0 0 1-3.983-3.97Z" fill="#CEE8FA"/><path d="M60.148 30.422h-28.27a5.864 5.864 0 0 1-5.852-5.852V8.65a5.864 5.864 0 0 1 5.852-5.853H60.16c3.223 0 5.853 2.63 5.853 5.853v15.92c-.013 3.222-2.643 5.852-5.865 5.852ZM31.878 6.548c-1.16 0-2.1.941-2.1 2.102v15.92c0 1.16.94 2.1 2.1 2.1H60.16c1.16 0 2.102-.94 2.102-2.1V8.65c0-1.16-.941-2.102-2.102-2.102H31.88Z" fill="#2D527C"/><path d="M44.447 17.712h-.632v-1.148c0-.657-.657-1.082-1.676-1.082-1.018 0-1.675.425-1.675 1.082v1.148h-1.148l3.236-6.497c.051-.129.116-.284.116-.438 0-.813-1.083-1.315-1.676-1.315-.619 0-1.121.31-1.405.863l-4.383 8.624c-.154.284-.18.529-.18.658 0 .722.477 1.211 1.173 1.211h4.267v1.83c0 .761.863 1.097 1.675 1.097.8 0 1.676-.349 1.676-1.096v-1.83h.632c.567 0 1.095-.761 1.095-1.56 0-.748-.348-1.547-1.095-1.547ZM55.894 17.712h-.632v-1.148c0-.657-.657-1.082-1.676-1.082-1.018 0-1.675.425-1.675 1.082v1.148h-1.148l3.249-6.497c.051-.129.116-.284.116-.438 0-.813-1.083-1.315-1.676-1.315-.619 0-1.122.31-1.405.863l-4.383 8.624a1.39 1.39 0 0 0-.18.658c0 .722.477 1.211 1.173 1.211h4.266v1.83c0 .761.864 1.097 1.676 1.097.812 0 1.676-.349 1.676-1.096v-1.83h.632c.567 0 1.095-.761 1.095-1.56 0-.748-.348-1.547-1.108-1.547Z" fill="#2D527C"/></g><defs><clipPath id="a"><path fill="#fff" d="M0 0h66v66H0z"/></clipPath></defs></svg>
